Kaze-dark-colors/24x24/places/folder-open-recent.svg

<?xml version="1.0" encoding="UTF-8" standalone="no"?>
<svg xmlns:inkscape="http://www.inkscape.org/namespaces/inkscape" xmlns:sodipodi="http://sodipodi.sourceforge.net/DTD/sodipodi-0.dtd" xmlns="http://www.w3.org/2000/svg" xmlns:svg="http://www.w3.org/2000/svg" width="24" height="24" viewBox="0 0 24 24" fill="none" version="1.1" id="svg3" sodipodi:docname="folder-open-recent.svg" inkscape:version="1.4 (e7c3feb100, 2024-10-09)">
    <defs id="defs1">
        <style id="current-color-scheme" type="text/css">
            .ColorScheme-Text { color:#e6f0f5; }
            .ColorScheme-Highlight { color:#2179cb; }
            .ColorScheme-Background { color:#e4e4e4; }
        </style>
    </defs>
    <sodipodi:namedview id="namedview3" pagecolor="#ffffff" bordercolor="#ffffff" borderopacity="0.25" inkscape:showpageshadow="2" inkscape:pageopacity="0.0" inkscape:pagecheckerboard="0" inkscape:deskcolor="#d1d1d1" inkscape:zoom="33.291667" inkscape:cx="8.2302879" inkscape:cy="14.823529" inkscape:window-width="1920" inkscape:window-height="1008" inkscape:window-x="0" inkscape:window-y="0" inkscape:window-maximized="1" inkscape:current-layer="g3"/>
    <g clip-path="url(#clip0_927_189)" id="g3">
        <path d="M17 15.5V17L17.5 17.5" stroke="#ffffff" stroke-width="1.2" stroke-linecap="round" stroke-linejoin="round" id="path1"/>
        <circle cx="17" cy="17" r="3" stroke="#ffffff" stroke-width="1.2" id="circle1"/>
        <path id="path3" style="fill:none;stroke:#ffffff;stroke-opacity:1;stroke-linecap:round" d="M 5,10.5 V 6 C 5,4.89543 5.89543,4 7,4 h 2.17157 c 0.53044,0 1.03913,0.21071 1.41423,0.58579 l 0.8284,0.82842 C 11.7893,5.78929 12.298,6 12.8284,6 H 17 c 1.1046,0 2,0.89543 2,2 V 8.5 M 13,20 H 12.97749 6 C 4.89543,20 4,19.1046 4,18 v -6.5 c 0,-0.5523 0.44772,-1 1,-1 h 3.17157 c 0.53044,0 1.03914,-0.2107 1.41422,-0.58579 L 10.4142,9.08579 C 10.7893,8.71071 11.298,8.5 11.8284,8.5 H 19 c 0.5523,0 1,0.44772 1,1 V 13" sodipodi:nodetypes="csssccssscczsssssccsssc" inkscape:path-effect="#path-effect3"/>
        <path d="M17 15.5V17L17.5 17.5" style="stroke:currentColor;opacity:0.5" class="ColorScheme-Highlight" stroke-width="1.2" stroke-linecap="round" stroke-linejoin="round" id="path1"/>
        <circle cx="17" cy="17" r="3" style="stroke:currentColor;opacity:0.5" class="ColorScheme-Highlight" stroke-width="1.2" id="circle1"/>
        <path id="path3" style="fill:none;stroke:currentColor;opacity:0.5;stroke-linecap:round" class="ColorScheme-Highlight" d="M 5,10.5 V 6 C 5,4.89543 5.89543,4 7,4 h 2.17157 c 0.53044,0 1.03913,0.21071 1.41423,0.58579 l 0.8284,0.82842 C 11.7893,5.78929 12.298,6 12.8284,6 H 17 c 1.1046,0 2,0.89543 2,2 V 8.5 M 13,20 H 12.97749 6 C 4.89543,20 4,19.1046 4,18 v -6.5 c 0,-0.5523 0.44772,-1 1,-1 h 3.17157 c 0.53044,0 1.03914,-0.2107 1.41422,-0.58579 L 10.4142,9.08579 C 10.7893,8.71071 11.298,8.5 11.8284,8.5 H 19 c 0.5523,0 1,0.44772 1,1 V 13" sodipodi:nodetypes="csssccssscczsssssccsssc" inkscape:path-effect="#path-effect3"/>
    </g>
    <defs id="defs3">
        <inkscape:path-effect effect="fillet_chamfer" id="path-effect3" is_visible="true" lpeversion="1" nodesatellites_param="F,0,0,1,0,0,0,1 @ F,0,0,1,0,0,0,1 @ F,0,0,1,0,0,0,1 @ F,0,0,1,0,0,0,1 @ F,0,0,1,0,0,0,1 @ F,0,0,1,0,0,0,1 @ F,0,0,1,0,0,0,1 @ F,0,0,1,0,0,0,1 @ F,0,0,1,0,0,0,1 @ F,0,0,1,0,0,0,1 | F,0,0,1,0,0,0,1 @ F,0,0,1,0,0,0,1 @ F,0,0,1,0,0,0,1 @ F,0,0,1,0,0,0,1 @ F,0,0,1,0,0,0,1 @ F,0,0,1,0,0,0,1 @ F,0,0,1,0,0,0,1 @ F,0,0,1,0,0,0,1 @ F,0,0,1,0,0,0,1 @ F,0,0,1,0,0,0,1 @ F,0,0,1,0,0,0,1 @ F,0,0,1,0,0,0,1 @ F,0,0,1,0,0,0,1" radius="0" unit="px" method="auto" mode="F" chamfer_steps="1" flexible="false" use_knot_distance="true" apply_no_radius="true" apply_with_radius="true" only_selected="false" hide_knots="false"/>
        <clipPath id="clip0_927_189">
            <rect width="24" height="24" fill="white" id="rect3"/>
        </clipPath>
    </defs>
</svg>

<svg width="24" height="24" viewBox="0 0 24 24" fill="none" xmlns="http://www.w3.org/2000/svg">
<g clip-path="url(#clip0_3017_2182)">
<mask id="mask0_3017_2182" style="mask-type:luminance" maskUnits="userSpaceOnUse" x="0" y="0" width="24" height="24">
<path d="M24 0H0V24H24V0Z" fill="white"/>
</mask>
<g mask="url(#mask0_3017_2182)">
<path d="M17 15.5V17L17.5 17.5" stroke="#DDDDDD" stroke-width="1.2" stroke-linecap="round" stroke-linejoin="round"/>
<path d="M17 20C18.6569 20 20 18.6569 20 17C20 15.3431 18.6569 14 17 14C15.3431 14 14 15.3431 14 17C14 18.6569 15.3431 20 17 20Z" stroke="#DDDDDD" stroke-width="1.2"/>
<path d="M13 20H6C4.89543 20 4 19.1046 4 18V11.5C4 10.9477 4.44772 10.5 5 10.5H8.17157C8.70201 10.5 9.21071 10.2893 9.58579 9.91421L10.4142 9.08579C10.7893 8.71071 11.298 8.5 11.8284 8.5H19C19.5523 8.5 20 8.94772 20 9.5V13" stroke="#DDDDDD" stroke-width="1.2" stroke-linecap="round"/>
<path d="M5 10.5V6C5 4.89543 5.89543 4 7 4H9.17157C9.70201 4 10.2107 4.21071 10.5858 4.58579L11.4142 5.41421C11.7893 5.78929 12.298 6 12.8284 6H17C18.1046 6 19 6.89543 19 8V8.5" stroke="#DDDDDD" stroke-width="1.2" stroke-linecap="round" stroke-linejoin="round"/>
</g>
</g>
<defs>
<clipPath id="clip0_3017_2182">
<rect width="24" height="24" fill="white"/>
</clipPath>
</defs>
</svg>
